icons/prolog.svg

<?xml version="1.0" encoding="UTF-8"?>
<svg width="32px" height="32px" viewBox="0 0 32 32" version="1.1" xmlns="http://www.w3.org/2000/svg" xmlns:xlink="http://www.w3.org/1999/xlink">
    <title>prolog_bold</title>
    <desc>Created with Sketch.</desc>
    <g id="prolog_bold" stroke="none" stroke-width="1" fill="none" fill-rule="evenodd">
        <g id="bold_prolog" transform="translate(8.000000, 7.000000)" fill="#000000" fill-rule="nonzero">
            <path d="M14.531773,0 C14.531773,0 12.3054572,2.67631579 8.30282566,2.67631579 C4.30019408,2.67631579 2.07979934,0 2.07979934,0 C2.07979934,0 -0.193884868,3.53486842 0.0133519737,6.975 C0.143615132,9.14210526 0.706115132,11.4276316 2.79624671,13.7782895 C4.02782566,15.1638158 5.78637829,16.5671053 8.30282566,17.9881579 C15.1001941,14.1572368 16.3850625,10.4151316 16.5922993,6.975 C16.7995362,3.53486842 14.531773,0 14.531773,0 Z M2.40427303,1.88644737 C2.79393007,2.18010007 3.20478945,2.44450668 3.63348355,2.6775 C2.80862812,2.96042163 2.08193993,3.47343842 1.53920724,4.15598684 C1.76247361,3.37624184 2.05187901,2.61697362 2.40427303,1.88644737 L2.40427303,1.88644737 Z M13.9254572,11.6905263 C13.3777599,12.5342763 12.6666414,13.3466447 11.780852,14.1359211 L11.780852,13.0671711 L10.5966414,13.0671711 L10.5966414,15.1016447 C10.0749967,15.4930263 9.5075625,15.8796711 8.89433882,16.2615789 L8.89433882,14.5284868 L7.71012829,14.5284868 L7.71012829,16.2598026 C7.09552303,15.8767105 6.52848355,15.4902632 6.00900987,15.1004605 L6.00900987,13.0671711 L4.82479934,13.0671711 L4.82479934,14.1323684 C4.42197436,13.7744302 4.04021681,13.3934635 3.68144408,12.9913816 C2.83769408,12.0422368 2.28229934,11.1221053 1.91400987,10.2451974 C3.10672266,11.4176512 4.84600704,11.8422439 6.44479934,11.35125 L8.30282566,13.2092763 L10.160852,11.35125 C11.7591722,11.8421593 13.4979764,11.4178002 14.6904572,10.2457895 C14.4802731,10.7497957 14.2241953,11.2334101 13.9254572,11.6905263 Z M7.58460197,10.8165789 C7.84313491,10.6492301 8.08380445,10.4557818 8.30282566,10.2392763 C8.52194685,10.4554288 8.76238261,10.6488486 9.02045724,10.8165789 L8.30282566,11.5348026 L7.58460197,10.8165789 Z M11.5001941,10.3677632 C10.0534134,10.3659776 8.76808976,9.44387686 8.30282566,8.07394737 C7.77355578,9.63617567 6.19114482,10.5855952 4.56364664,10.317391 C2.93614846,10.0491867 1.74206041,8.64221272 1.74206041,6.99276316 C1.74206041,5.34331359 2.93614846,3.93633965 4.56364664,3.66813536 C6.19114482,3.39993108 7.77355578,4.34935065 8.30282566,5.91157895 C8.85450131,4.2800137 10.5461753,3.32555419 12.2279584,3.69697948 C13.9097415,4.06840477 15.0420835,5.64655407 14.8552925,7.35870486 C14.6685016,9.07085564 13.2225039,10.3677632 11.5001941,10.3677632 Z M12.9739441,2.67809211 C13.4030848,2.44467647 13.8145185,2.18008441 14.2049309,1.88644737 C14.5565502,2.61744379 14.8451625,3.37710642 15.0676283,4.15717105 C14.524919,3.4747254 13.7985125,2.96155701 12.9739441,2.67809211 L12.9739441,2.67809211 Z" id="Shape"></path>
            <circle id="Oval" cx="5.10543947" cy="6.99276316" r="1.6875"></circle>
            <circle id="Oval" cx="11.5001763" cy="6.99276316" r="1.6875"></circle>
        </g>
    </g>
</svg>

<svg viewBox="4.72 4.4 22.88 22.88" xmlns="http://www.w3.org/2000/svg"><g transform="translate(8 7)" fill="#E37933" fill-rule="nonzero"><path d="M14.532 0s-2.227 2.676-6.23 2.676C4.3 2.676 2.08 0 2.08 0S-.194 3.535.013 6.975c.13 2.167.693 4.453 2.783 6.803 1.232 1.386 2.99 2.79 5.507 4.21 6.797-3.83 8.082-7.573 8.29-11.013C16.8 3.535 14.531 0 14.531 0zM2.404 1.886c.39.294.8.559 1.23.792a4.57 4.57 0 00-2.095 1.478c.223-.78.513-1.539.865-2.27zm11.521 9.805c-.547.843-1.258 1.656-2.144 2.445v-1.069h-1.184v2.035c-.522.391-1.09.778-1.703 1.16v-1.734H7.71v1.732A23.887 23.887 0 016.01 15.1v-2.033H4.825v1.065a13.957 13.957 0 01-1.144-1.14c-.843-.95-1.399-1.87-1.767-2.747a4.555 4.555 0 004.53 1.106l1.859 1.858 1.858-1.858a4.554 4.554 0 004.53-1.105 8.91 8.91 0 01-.766 1.445zm-6.34-.874a4.5 4.5 0 00.718-.578c.219.216.46.41.717.578l-.717.718-.718-.718zm3.915-.45a3.381 3.381 0 01-3.197-2.293 3.37 3.37 0 110-2.162 3.375 3.375 0 113.197 4.456zm1.474-7.689c.43-.233.84-.498 1.23-.792.353.731.641 1.491.864 2.271a4.576 4.576 0 00-2.094-1.479z"></path><circle cx="5.105" cy="6.993" r="1.688"></circle><circle cx="11.5" cy="6.993" r="1.688"></circle></g></svg>
